X: 29285
T: New Reed, The
R: slip jig
M: 9/8
K: Dmixolydian
|:D2 d AFd AFd|D2 d AFA GFE|D2 d AFd AFD|c2 c GEG c2 E:|
|:F2 F FDF GFE|F2 A BAG FED|F2 F FDG AFD|c2 c GEG c2 E:|

